X: 1
T: Miss Lacey's
M: 4/4
L: 1/8
R: hornpipe
K: Gmaj
|:D2 | GFGA GBAG | FGAB c2BA | GFGA GBAG | FGAF D2EF |
GFGA GBAG | FGAB c2BA | BcdB ecAF | G2GG G2 :|
|: d2 |edef gfed | egfa g2dc | BcdB cBAG | FGAF D2Bd |
edef gfed | egfa g2dc | BcdB ecAF | G2GG G2 :|
